archdroid-icon-theme/Archdroid-Shamrock/actions/scalable/mail-mark-important.svg

<svg xmlns="http://www.w3.org/2000/svg" fill="#00E676" viewBox="0 0 48 48"><path d="m8 8c-2.21 0-3.98 1.79-3.98 4l-.02 24c0 2.21 1.79 4 4 4h28v-16h8v-12c0-2.21-1.79-4-4-4h-32m0 4l16 10 16-10v4l-16 10-16-10v-4m32 16h4v12h-4zm0 14h4v4h-4z"/></svg>

<?xml version="1.0" encoding="UTF-8" standalone="no"?>
<svg
   xmlns:dc="http://purl.org/dc/elements/1.1/"
   xmlns:cc="http://creativecommons.org/ns#"
   xmlns:rdf="http://www.w3.org/1999/02/22-rdf-syntax-ns#"
   xmlns:svg="http://www.w3.org/2000/svg"
   xmlns="http://www.w3.org/2000/svg"
   xmlns:sodipodi="http://sodipodi.sourceforge.net/DTD/sodipodi-0.dtd"
   xmlns:inkscape="http://www.inkscape.org/namespaces/inkscape"
   fill="#00E676"
   width="48"
   height="48"
   viewBox="0 0 48 48"
   id="svg2"
   version="1.1"
   inkscape:version="0.91 r13725"
   sodipodi:docname="mail-mark-important.svg">
  <metadata
     id="metadata10">
    <rdf:RDF>
      <cc:Work
         rdf:about="">
        <dc:format>image/svg+xml</dc:format>
        <dc:type
           rdf:resource="http://purl.org/dc/dcmitype/StillImage" />
      </cc:Work>
    </rdf:RDF>
  </metadata>
  <defs
     id="defs8" />
  <sodipodi:namedview
     pagecolor="#ffffff"
     bordercolor="#666666"
     borderopacity="1"
     objecttolerance="10"
     gridtolerance="10"
     guidetolerance="10"
     inkscape:pageopacity="0"
     inkscape:pageshadow="2"
     inkscape:window-width="1366"
     inkscape:window-height="713"
     id="namedview6"
     showgrid="false"
     inkscape:snap-bbox="true"
     inkscape:bbox-nodes="true"
     inkscape:zoom="6.179518388275631"
     inkscape:cx="16.72221755225055"
     inkscape:cy="18.06252725774032"
     inkscape:window-x="0"
     inkscape:window-y="30"
     inkscape:window-maximized="1"
     inkscape:current-layer="svg2"
     inkscape:snap-page="true" />
  <path
     id="path4180"
     style="opacity:1;fill:#00E676;fill-opacity:1;fill-rule:nonzero;stroke:none;stroke-width:3;stroke-miterlimit:4;stroke-dasharray:none;stroke-opacity:1"
     d="M 8,8 C 5.79,8 4.01953125,9.789999999999999 4.01953125,12 L 4,36 c 0,2.21 1.79,4 4,4 l 28,0 0,-16 8,0 0,-12 C 44,9.789999999999999 42.21,8 40,8 L 8,8 Z M 8,12 24,22 40,12 40,16 24,26 8,16 8,12 Z m 32,16 4,0 0,12 -4,0 z m 0,14 4,0 0,4 -4,0 z" />
</svg>
